svg/view_dashboard_variant.svg

<svg xmlns="http://www.w3.org/2000/svg" viewBox="0 0 24 24"><path d="M2 5v14h6V5zm7 0v5h6V5zm7 0v9h6V5zm-7 6v8h6v-8zm7 4v4h6v-4z"/></svg>

<?xml version="1.0" encoding="UTF-8"?><!DOCTYPE svg PUBLIC "-//W3C//DTD SVG 1.1//EN" "http://www.w3.org/Graphics/SVG/1.1/DTD/svg11.dtd"><svg xmlns="http://www.w3.org/2000/svg" xmlns:xlink="http://www.w3.org/1999/xlink" version="1.1" id="mdi-view-dashboard-variant" width="24" height="24" viewBox="0 0 24 24"><path d="M2,5V19H8V5H2M9,5V10H15V5H9M16,5V14H22V5H16M9,11V19H15V11H9M16,15V19H22V15H16Z" /></svg>
